X: 19618
T: Japanese, The
R: hornpipe
M: 4/4
K: Gmajor
|:Bc|(3ded ^cd =cd B2|(3ABA GA FA E2|DEFG ABcd|ed^cd B2 Bc|
(3ded ^cd =cd B2|(3ABA GA FA E2|DEFG ABcd|(3fed (3cAF G2:|
|:DG|B2 B2 BA GA|d2 A2 A2 FG|A2 A2 AG FA|B2 G2 G2 DG|
B2 B2 BA GA|d2 A2 A2 Bc|d2 ^cd fd=cA|G2 Bd g2:|

